svgs/ibispaint_x.svg

<svg width="24" height="24" viewBox="0 0 24 24" fill="none" xmlns="http://www.w3.org/2000/svg">
<g clip-path="url(#clip0_28_132)">
<path d="M5.32017 19.9409C4.95296 19.9409 4.58575 19.5736 4.58575 19.2064V11.65C4.58575 11.2828 4.95296 10.9156 5.32017 10.9156H5.35134C5.71855 10.9156 6.08576 11.2828 6.08576 11.65V19.2064C6.08576 19.5736 5.71855 19.9409 5.35134 19.9409H5.32017Z" fill="black"/>
<path d="M4.58575 8.75C4.58575 8.33579 4.92154 8 5.33575 8C5.74997 8 6.08575 8.33579 6.08575 8.75C6.08575 9.16421 5.74997 9.5 5.33575 9.5C4.92154 9.5 4.58575 9.16421 4.58575 8.75Z" fill="black" stroke="black" stroke-miterlimit="10" stroke-linecap="round" stroke-linejoin="round"/>
<path d="M14.5922 7.21809V4.52837C15.484 4.55858 16.3074 4.82364 17.0521 5.21399L15.7075 7.52219C15.3664 7.36041 14.9883 7.2433 14.5922 7.21809V7.21809Z" fill="black"/>
<path d="M16.4532 8.0148L18.1821 5.95436C18.8458 6.55074 19.3062 7.28307 19.6258 8.06081L17.112 8.96465C16.9548 8.62152 16.7404 8.28877 16.4532 8.0148V8.0148Z" fill="black"/>
<path d="M17.3666 9.82134L20.0155 9.35428C20.1406 10.2378 20.0226 11.0947 19.7675 11.8959L17.2608 10.9725C17.3609 10.6086 17.4106 10.2159 17.3666 9.82134H17.3666Z" fill="black"/>
<path d="M16.9052 11.7924L19.2345 13.1373C18.7625 13.8945 18.1212 14.4751 17.4108 14.9248L16.0842 12.6062C16.3948 12.3918 16.6853 12.1229 16.9052 11.7924V11.7924Z" fill="black"/>
<path d="M15.2847 13.0057L16.2046 15.5332C15.3563 15.8098 14.4919 15.8424 13.6585 15.7303L14.1327 13.1014C14.5084 13.1368 14.9038 13.1175 15.2847 13.0057V13.0057Z" fill="black"/>
<path d="M13.2635 12.8935L12.3435 15.421C11.5158 15.0876 10.8327 14.5569 10.2664 13.9354L12.3194 12.2263C12.5846 12.495 12.8998 12.7343 13.2635 12.8935V12.8935Z" fill="black"/>
<path d="M11.7872 11.5084L9.45784 12.8532C9.0381 12.0658 8.85593 11.2202 8.82162 10.38L11.4929 10.3904C11.5233 10.7667 11.611 11.1527 11.7872 11.5084V11.5084Z" fill="black"/>
<path d="M11.5467 9.49835L8.89783 9.03129C9.08244 8.15829 9.48645 7.3934 10.0002 6.72776L12.0398 8.45281C11.8213 8.76055 11.6403 9.11258 11.5467 9.49835V9.49835Z" fill="black"/>
<path d="M12.6544 7.80399L10.9255 5.74355C11.6281 5.19345 12.4293 4.86721 13.2507 4.68753L13.7043 7.32005C13.3391 7.41531 12.9741 7.56865 12.6544 7.80398V7.80399Z" fill="black"/>
<path d="M10.8272 18.8717C10.8272 19.4968 10.202 20.122 9.57684 20.122H9.51918C8.894 20.122 8.26883 19.4968 8.26883 18.8717V13.0609C8.8297 14.2386 9.72291 15.2275 10.8272 15.9064V18.8717Z" fill="black"/>
</g>
<defs>
<clipPath id="clip0_28_132">
<rect width="24" height="24" fill="white"/>
</clipPath>
</defs>
</svg>

<svg xmlns="http://www.w3.org/2000/svg" width="24" height="24" fill="none" viewBox="0 0 24 24"><g fill="#000" clip-path="url(#a)"><path d="M5.32 19.94c-.367 0-.734-.366-.734-.734V11.65c0-.367.367-.734.734-.734h.031c.368 0 .735.367.735.734v7.556c0 .368-.367.735-.735.735h-.03"/><path stroke="#000" stroke-linecap="round" stroke-linejoin="round" stroke-miterlimit="10" d="M4.586 8.75a.75.75 0 1 1 1.5 0 .75.75 0 0 1-1.5 0"/><path d="M14.592 7.218v-2.69c.892.03 1.715.296 2.46.686l-1.344 2.308a3.073 3.073 0 0 0-1.116-.304m1.861.797 1.73-2.06c.663.596 1.123 1.328 1.443 2.106l-2.514.904a3.073 3.073 0 0 0-.659-.95m.914 1.806 2.648-.467c.126.884.008 1.74-.248 2.542l-2.506-.924c.1-.363.15-.756.106-1.15m-.462 1.97 2.33 1.345c-.473.758-1.114 1.338-1.824 1.788l-1.327-2.319a3.07 3.07 0 0 0 .821-.814m-1.62 1.214.92 2.527c-.849.277-1.713.31-2.546.197l.474-2.629c.375.036.77.016 1.152-.095m-2.021-.112-.92 2.527c-.828-.333-1.511-.864-2.078-1.486l2.053-1.709c.266.269.58.508.944.667m-1.476-1.385-2.33 1.345c-.419-.787-.601-1.633-.635-2.473l2.67.01c.031.377.119.763.295 1.118m-.24-2.01-2.65-.467c.185-.873.59-1.638 1.103-2.303l2.04 1.725c-.219.308-.4.66-.493 1.045m1.107-1.694-1.729-2.06c.703-.55 1.504-.877 2.326-1.056l.453 2.632a3.08 3.08 0 0 0-1.05.484m-1.827 11.068c0 .625-.625 1.25-1.25 1.25h-.058c-.625 0-1.25-.625-1.25-1.25V13.06a6.755 6.755 0 0 0 2.558 2.845v2.966"/></g><defs><clipPath id="a"><path fill="#fff" d="M0 0h24v24H0z"/></clipPath></defs></svg>
